icons/1_Primary/Justworks.svg

<svg xmlns="http://www.w3.org/2000/svg" viewBox="0 0 1024 1024">
   <circle cx="512" cy="512" r="512" style="fill:#52b0ff"/>
   <path d="m480.36 550.59-25.5-79h29.48l11 49.75h.66l14.06-49.75h22.45l13.55 49.75h.68L559 471.57h21.4l-24.82 79H532.2L518 500.92h-.68l-13.55 49.67zm225-44c0-9.36 2.54-11.87 10.42-11.87h13.13v-23.65h-1.44c-11.86 0-19.23 5.1-23 26.76h-.68v-26.26h-25.64v78.93h27.19zm61.07 20.9 7.77-8.49 17.11 31.61h28.8L792 500l26.43-28.43h-24.24l-27.78 33.95V442h-26.94v108.59h26.94zm109.67 23.08h15.61v31.61H132.15v-31.59h20c-16.75-5-22.45-18.39-24.19-31.86l26.77-5c.51 13.55 4.83 20.07 13.89 20.07 7.88 0 11.52-3.6 11.52-14v-77.99H208v71.41c0 21.19-6.74 32.94-22.35 37.38h53.25c-9.11-3.55-13.62-12.12-13.62-26.59v-52.44h27.19v52.93c0 7.61 3.64 10.62 9.57 10.62 7.88 0 12.62-4.77 12.62-15.8v-47.75h27.19v79H276v-21.3h-.68c-2.66 12.32-7.46 18.54-13.93 21.32h77.47c-11.06-2.85-18.87-8.85-23-16.81l14.58-9.78c4.83 8.86 12.45 12.29 22.45 12.29 7.54 0 10.84-2.17 10.84-6.35 0-4.77-3.22-7.27-12.2-8.86L340.35 519c-15.08-2.68-23.21-11.37-23.21-23.58 0-16.3 13.3-25.75 33.63-25.75 20.16 0 29.65 8.19 34.73 17.39l-14.23 9c-3.64-8.19-11-10.87-17.79-10.87-7 0-10.76 2.51-10.76 6.61 0 3.93 3 6.19 10.76 7.61l11.35 2.09c16.77 3 25 9.78 25 24.5 0 10.71-5.35 20.61-19.93 24.58h58.55c-17 0-22.44-5.38-22.44-21.32v-41.88h-10.86v-15.8H406v-20.74h27.19v20.74h13.13v15.8h-13.14v39.47c0 5.18 2.12 7.27 6.1 7.27h7v16.47h164.49c-17.13-4.88-27.83-19.22-27.83-39.55 0-25.25 16.69-41.39 41.59-41.39s41.59 16.14 41.59 41.39c0 20.27-10.76 34.66-27.89 39.55H845c-11.09-2.85-18.94-8.85-23.12-16.81l14.74-9.78c4.83 8.86 12.45 12.29 22.45 12.29 7.54 0 10.84-2.17 10.84-6.35 0-4.77-3.22-7.27-12.2-8.86L846.53 519c-15.08-2.68-23.21-11.37-23.21-23.58 0-16.3 13.3-25.75 33.63-25.75 20.16 0 29.65 8.19 34.73 17.39l-14.23 9c-3.64-8.19-11-10.87-17.79-10.87-7 0-10.76 2.51-10.76 6.61 0 3.93 3 6.19 10.76 7.61l11.34 2.1c16.77 3 25 9.78 25 24.5 0 10.7-5.35 20.61-19.93 24.58zM611.4 511c0 20.4 4.49 25.75 13.13 25.75s13.13-5.35 13.13-25.75-4.49-25.75-13.13-25.75-13.13 5.39-13.13 25.75z" style="fill:#fff"/>
</svg>

<svg width="1024" height="1024" viewBox="0 0 1024 1024" fill="none" xmlns="http://www.w3.org/2000/svg">
<g clip-path="url(#clip0_2_2571)">
<path d="M512 1024C794.77 1024 1024 794.77 1024 512C1024 229.23 794.77 0 512 0C229.23 0 0 229.23 0 512C0 794.77 229.23 1024 512 1024Z" fill="#9ABEFF"/>
<path d="M480.36 550.59L454.86 471.59H484.34L495.34 521.34H496L510.06 471.59H532.51L546.06 521.34H546.74L559 471.57H580.4L555.58 550.57H532.2L518 500.92H517.32L503.77 550.59H480.36ZM705.36 506.59C705.36 497.23 707.9 494.72 715.78 494.72H728.91V471.07H727.47C715.61 471.07 708.24 476.17 704.47 497.83H703.79V471.57H678.15V550.5H705.34L705.36 506.59ZM766.43 527.49L774.2 519L791.31 550.61H820.11L792 500L818.43 471.57H794.19L766.41 505.52V442H739.47V550.59H766.41L766.43 527.49ZM876.1 550.57H891.71V582.18H132.15V550.59H152.15C135.4 545.59 129.7 532.2 127.96 518.73L154.73 513.73C155.24 527.28 159.56 533.8 168.62 533.8C176.5 533.8 180.14 530.2 180.14 519.8V441.81H208V513.22C208 534.41 201.26 546.16 185.65 550.6H238.9C229.79 547.05 225.28 538.48 225.28 524.01V471.57H252.47V524.5C252.47 532.11 256.11 535.12 262.04 535.12C269.92 535.12 274.66 530.35 274.66 519.32V471.57H301.85V550.57H276V529.27H275.32C272.66 541.59 267.86 547.81 261.39 550.59H338.86C327.8 547.74 319.99 541.74 315.86 533.78L330.44 524C335.27 532.86 342.89 536.29 352.89 536.29C360.43 536.29 363.73 534.12 363.73 529.94C363.73 525.17 360.51 522.67 351.53 521.08L340.35 519C325.27 516.32 317.14 507.63 317.14 495.42C317.14 479.12 330.44 469.67 350.77 469.67C370.93 469.67 380.42 477.86 385.5 487.06L371.27 496.06C367.63 487.87 360.27 485.19 353.48 485.19C346.48 485.19 342.72 487.7 342.72 491.8C342.72 495.73 345.72 497.99 353.48 499.41L364.83 501.5C381.6 504.5 389.83 511.28 389.83 526C389.83 536.71 384.48 546.61 369.9 550.58H428.45C411.45 550.58 406.01 545.2 406.01 529.26V487.38H395.15V471.58H406V450.84H433.19V471.58H446.32V487.38H433.18V526.85C433.18 532.03 435.3 534.12 439.28 534.12H446.28V550.59H610.77C593.64 545.71 582.94 531.37 582.94 511.04C582.94 485.79 599.63 469.65 624.53 469.65C649.43 469.65 666.12 485.79 666.12 511.04C666.12 531.31 655.36 545.7 638.23 550.59H845C833.91 547.74 826.06 541.74 821.88 533.78L836.62 524C841.45 532.86 849.07 536.29 859.07 536.29C866.61 536.29 869.91 534.12 869.91 529.94C869.91 525.17 866.69 522.67 857.71 521.08L846.53 519C831.45 516.32 823.32 507.63 823.32 495.42C823.32 479.12 836.62 469.67 856.95 469.67C877.11 469.67 886.6 477.86 891.68 487.06L877.45 496.06C873.81 487.87 866.45 485.19 859.66 485.19C852.66 485.19 848.9 487.7 848.9 491.8C848.9 495.73 851.9 497.99 859.66 499.41L871 501.51C887.77 504.51 896 511.29 896 526.01C896 536.71 890.65 546.62 876.07 550.59L876.1 550.57ZM611.4 511C611.4 531.4 615.89 536.75 624.53 536.75C633.17 536.75 637.66 531.4 637.66 511C637.66 490.6 633.17 485.25 624.53 485.25C615.89 485.25 611.4 490.64 611.4 511Z" fill="white"/>
</g>
<defs>
<clipPath id="clip0_2_2571">
<rect width="1024" height="1024" fill="white"/>
</clipPath>
</defs>
</svg>
